src/components/LandingPage/images/SocialProofLogos/webiny.svg

<svg xmlns="http://www.w3.org/2000/svg" width="123" height="40" fill="none" viewBox="0 0 123 40"><g clip-path="url(#clip0)" opacity=".4"><path fill="#fff" fill-rule="evenodd" d="M87.3835 25.8858L89.9624 25.8858V14.211H87.3835V25.8858ZM115.849 14.1979H113.153C113.153 16.5026 113.158 18.6923 113.15 20.8821C113.142 22.3374 112.107 23.3616 110.683 23.3485C109.246 23.3381 108.58 22.6091 108.569 20.989C108.556 19.0738 108.569 17.1559 108.562 15.2405C108.559 14.893 108.502 14.5454 108.47 14.2137H105.951C105.907 14.3182 105.862 14.373 105.862 14.4281C105.855 17.1637 105.81 19.9047 105.862 22.6406C105.889 23.973 106.516 25.0156 107.83 25.5749C109.175 24.6785 110.665 24.7571 112.157 24.9399C113.375 25.0915 114.566 25.0078 115.875 24.744C115.865 21.2165 115.904 17.715 115.849 14.1979ZM103.333 16.952C103.302 15.818 102.575 14.9844 101.533 14.5037C100.456 14.0073 99.309 13.7929 98.1594 14.0648C97.2083 14.2896 96.3015 14.6997 95.3479 15.0395C94.9349 14.6815 94.462 14.2738 93.9446 13.8218C93.2993 14.4019 92.7401 14.901 92.1835 15.3999C93.375 16.8945 93.375 16.8945 93.375 18.8412C93.375 20.8481 93.375 22.8574 93.3776 24.864C93.3776 25.188 93.4065 25.5147 93.4247 25.8807H96.0847V19.3404C96.0847 17.9189 96.8268 16.9651 98.2116 16.6071C99.8316 16.189 100.678 16.8293 100.684 18.4964C100.691 20.6233 100.684 22.7528 100.689 24.8824C100.689 25.2065 100.72 25.5305 100.738 25.8596H103.357C103.357 22.8443 103.409 19.8969 103.333 16.952ZM68.445 16.4713C69.7357 16.5601 70.2348 17.0827 70.1458 18.3918C68.8393 19.7061 67.2168 19.1495 65.6882 19.2385C65.7978 17.6158 67.0704 16.3772 68.445 16.4713ZM72.2024 22.3949C71.5412 22.6823 70.9638 22.9488 70.3732 23.1814C69.4483 23.5498 68.4894 23.657 67.5069 23.4584C66.5295 23.2624 66.0593 22.7946 65.8737 21.7626C66.4303 21.7626 66.9685 21.76 67.5042 21.7626C68.769 21.7755 69.9969 21.598 71.1258 20.997C73.4329 19.7662 73.7179 16.5809 71.63 15.055C69.4167 13.4349 66.1141 13.5734 64.2013 15.8495C62.7695 17.5556 62.4899 19.5521 62.8323 21.6894C63.1143 23.4348 64.0158 24.7544 65.5864 25.5409C67.8178 26.6592 71.5674 26.0659 73.5166 24.305C73.0803 23.6725 72.6386 23.0325 72.2024 22.3949ZM121.639 20.9839C120.895 19.2644 118.825 18.1176 116.928 18.3841C116.758 18.4076 116.602 18.5146 116.408 18.5982V21.2582C116.766 21.2007 117.062 21.1301 117.359 21.112C118.107 21.0649 118.838 21.4699 119.105 22.0525C119.405 22.7058 119.233 23.6386 118.658 24.143C118.368 24.3964 118.023 24.6525 117.66 24.7491C116.787 24.9816 115.894 25.2326 114.997 25.269C113.359 25.3396 111.713 25.2326 110.072 25.2821C108.745 25.3241 107.496 26.0034 106.806 27.1374C105.609 29.1077 106.171 31.8406 107.979 33.1682C109.735 34.4562 112.353 34.2263 113.908 32.6271C115.029 31.4749 115.512 30.0377 115.766 28.3864H113.025C112.93 28.6842 112.847 29.0371 112.711 29.3689C112.562 29.7321 112.408 30.103 112.188 30.4246C111.645 31.2188 110.668 31.48 109.855 31.0961C109.212 30.7929 108.789 29.9124 108.93 29.1729C109.102 28.2661 109.568 27.9448 110.749 27.9421C112.421 27.937 114.093 27.9945 115.763 27.9394C117.435 27.882 118.998 27.4013 120.333 26.3456C121.909 25.1019 122.447 22.8496 121.639 20.9839ZM82.2309 22.4027C81.5331 23.3199 80.5507 23.5551 79.4819 23.5498C78.9672 23.5471 78.4524 23.4661 77.7862 23.4086C77.7862 21.5822 77.7183 19.821 77.815 18.0678C77.8618 17.1977 78.6197 16.7143 79.4062 16.4895C80.3234 16.2256 81.2249 16.3016 81.9435 17.0488C83.1663 18.3266 83.3047 20.989 82.2309 22.4027ZM85.5937 18.4571C85.1574 15.4365 82.8709 13.6205 79.8425 13.7982C79.1867 13.8375 78.5414 14.049 77.7808 14.2059V9.26479H75.019V25.4626C76.2576 25.8935 78.7686 26.2071 80.0254 26.1052C83.0304 25.8622 84.9326 24.3441 85.5204 21.5301C85.7295 20.5396 85.7399 19.4606 85.5937 18.4571ZM59.7908 14.2083C59.0303 16.3537 58.2649 18.5041 57.4992 20.6572H57.2562C56.4932 18.499 55.7276 16.3433 54.9647 14.1901H52.5843C51.8107 16.3668 51.0452 18.5226 50.2796 20.6808H50.0574C49.2814 18.5015 48.5053 16.3224 47.7554 14.219H44.9126C46.2947 18.1774 47.6432 22.0369 48.9913 25.8962H51.3377L53.6608 19.3665H53.8959C54.6719 21.556 55.4453 23.7484 56.2059 25.8911H58.5574C59.9109 22.0161 61.2593 18.1539 62.6363 14.2083H59.7908Z" clip-rule="evenodd"/><mask id="mask0" width="37" height="40" x="0" y="0" mask-type="alpha" maskUnits="userSpaceOnUse"><path fill="#fff" d="M34.2842 31.5122L20.664 39.376C19.375 40.1201 17.7869 40.1201 16.4979 39.376L2.87743 31.5122C1.58843 30.7679 0.794434 29.3928 0.794434 27.9045L0.794434 12.1769C0.794434 10.6886 1.58843 9.31326 2.87743 8.5692L16.4979 0.705437C17.7869 -0.0388567 19.375 -0.0388567 20.664 0.705437L34.2842 8.5692C35.5733 9.31326 36.3673 10.6886 36.3673 12.1769V27.9045C36.3673 29.3928 35.5733 30.7679 34.2842 31.5122ZM26.8132 13.407C25.7917 16.2891 24.7629 19.1785 23.7344 22.0711H23.408C22.3828 19.1715 21.3543 16.2751 20.3292 13.3825H17.131C16.0918 16.3068 15.0633 19.203 14.0348 22.1029H13.7362C12.6936 19.1749 11.651 16.2472 10.6433 13.4211H6.82384C8.68108 18.7396 10.4925 23.9247 12.3039 29.1098H15.4564L18.5774 20.3368H18.8934C19.936 23.2788 20.9752 26.2243 21.9967 29.1027H25.1563C26.9747 23.8965 28.7861 18.708 30.6363 13.407H26.8132Z"/></mask><g mask="url(#mask0)"><path fill="#fff" d="M34.2842 31.5122L20.664 39.376C19.375 40.1201 17.7869 40.1201 16.4979 39.376L2.87743 31.5122C1.58843 30.7679 0.794434 29.3928 0.794434 27.9045L0.794434 12.1769C0.794434 10.6886 1.58843 9.31326 2.87743 8.5692L16.4979 0.705437C17.7869 -0.0388567 19.375 -0.0388567 20.664 0.705437L34.2842 8.5692C35.5733 9.31326 36.3673 10.6886 36.3673 12.1769V27.9045C36.3673 29.3928 35.5733 30.7679 34.2842 31.5122ZM26.8132 13.407C25.7917 16.2891 24.7629 19.1785 23.7344 22.0711H23.408C22.3828 19.1715 21.3543 16.2751 20.3292 13.3825H17.131C16.0918 16.3068 15.0633 19.203 14.0348 22.1029H13.7362C12.6936 19.1749 11.651 16.2472 10.6433 13.4211H6.82384C8.68108 18.7396 10.4925 23.9247 12.3039 29.1098H15.4564L18.5774 20.3368H18.8934C19.936 23.2788 20.9752 26.2243 21.9967 29.1027H25.1563C26.9747 23.8965 28.7861 18.708 30.6363 13.407H26.8132Z"/></g></g><defs><clipPath id="clip0"><rect width="121.471" height="40" fill="#fff" transform="translate(0.794434 0.00012207)"/></clipPath></defs></svg>

<svg fill="none" viewBox="0 0 123 40"><g clip-path="url(#clip0)" opacity=".4"><path fill="#fff" fill-rule="evenodd" d="M87.383 25.886h2.58V14.21h-2.58v11.675zm28.466-11.688h-2.696c0 2.305.005 4.494-.003 6.684-.008 1.455-1.043 2.48-2.467 2.466-1.437-.01-2.103-.739-2.114-2.359-.013-1.915 0-3.833-.007-5.748-.003-.348-.06-.696-.092-1.027h-2.519c-.044.104-.089.159-.089.214-.007 2.736-.052 5.477 0 8.213.027 1.332.654 2.375 1.968 2.934 1.345-.896 2.835-.818 4.327-.635 1.218.151 2.409.068 3.718-.196-.01-3.527.029-7.029-.026-10.546zm-12.516 2.754c-.031-1.134-.758-1.968-1.8-2.448-1.077-.497-2.224-.711-3.374-.44-.95.226-1.858.636-2.811.976-.413-.358-.886-.766-1.403-1.218L92.184 15.4c1.191 1.495 1.191 1.495 1.191 3.441 0 2.007 0 4.016.003 6.023 0 .324.028.65.047 1.017h2.66v-6.54c0-1.422.742-2.376 2.127-2.734 1.62-.418 2.466.222 2.472 1.89.007 2.126 0 4.256.005 6.385 0 .324.031.648.049.978h2.619c0-3.016.052-5.963-.024-8.908zm-34.888-.48c1.29.088 1.79.61 1.7 1.92-1.306 1.314-2.928.758-4.457.846.11-1.622 1.382-2.86 2.757-2.767zm3.757 5.923c-.66.287-1.238.554-1.829.786-.925.369-1.884.476-2.866.277-.978-.196-1.448-.663-1.633-1.695.556 0 1.095-.003 1.63 0 1.265.012 2.493-.165 3.622-.766 2.307-1.23 2.592-4.416.504-5.942-2.213-1.62-5.516-1.482-7.429.795-1.431 1.706-1.711 3.702-1.369 5.84.282 1.745 1.184 3.064 2.754 3.85 2.232 1.12 5.981.526 7.93-1.235-.436-.633-.877-1.273-1.314-1.91zm49.437-1.411c-.744-1.72-2.814-2.866-4.711-2.6-.17.024-.326.13-.52.214v2.66c.358-.057.654-.128.951-.146.748-.047 1.479.358 1.746.94.3.654.128 1.587-.447 2.091-.29.253-.635.51-.998.606-.873.233-1.766.484-2.663.52-1.638.07-3.284-.036-4.925.013-1.327.042-2.576.721-3.266 1.855-1.197 1.97-.635 4.704 1.173 6.031 1.756 1.288 4.374 1.058 5.929-.54 1.121-1.153 1.604-2.59 1.858-4.242h-2.741c-.095.298-.178.651-.314.983-.149.363-.303.734-.523 1.056-.543.794-1.52 1.055-2.333.671-.643-.303-1.066-1.184-.925-1.923.172-.907.638-1.228 1.819-1.23 1.672-.006 3.344.051 5.014-.004 1.672-.057 3.235-.538 4.57-1.593 1.576-1.244 2.114-3.496 1.306-5.362zm-39.408 1.419c-.698.917-1.68 1.152-2.75 1.147-.514-.003-1.029-.084-1.695-.141 0-1.827-.068-3.588.029-5.341.047-.87.805-1.354 1.591-1.579.917-.263 1.819-.187 2.537.56 1.223 1.278 1.362 3.94.288 5.354zm3.363-3.946c-.437-3.02-2.723-4.837-5.751-4.659-.656.04-1.302.251-2.062.408V9.265h-2.762v16.198c1.239.43 3.75.744 5.006.642 3.005-.243 4.908-1.76 5.495-4.575.21-.99.22-2.07.074-3.073zM59.79 14.208c-.76 2.146-1.526 4.296-2.292 6.45h-.243c-.763-2.159-1.528-4.315-2.291-6.468h-2.38c-.774 2.177-1.54 4.333-2.305 6.49h-.223l-2.302-6.461h-2.842l4.078 11.677h2.347l2.323-6.53h.235c.776 2.19 1.55 4.382 2.31 6.525h2.351l4.08-11.683H59.79z" clip-rule="evenodd"/><mask id="a" width="37" height="40" x="0" y="0" maskUnits="userSpaceOnUse"><path fill="#fff" d="M34.284 31.512l-13.62 7.864a4.167 4.167 0 01-4.166 0l-13.62-7.864a4.166 4.166 0 01-2.084-3.608V12.177c0-1.488.794-2.864 2.083-3.608L16.497.705a4.166 4.166 0 014.167 0l13.62 7.864a4.165 4.165 0 012.083 3.608v15.727a4.166 4.166 0 01-2.083 3.608zm-7.47-18.105c-1.022 2.882-2.051 5.771-3.08 8.664h-.326c-1.025-2.9-2.054-5.796-3.079-8.689h-3.198c-1.04 2.925-2.068 5.821-3.096 8.72h-.299a12804.74 12804.74 0 00-3.093-8.68h-3.82c1.858 5.318 3.67 10.503 5.48 15.688h3.153l3.121-8.773h.316c1.043 2.942 2.082 5.887 3.104 8.766h3.16l5.48-15.696h-3.824z"/></mask><g mask="url(#a)"><path fill="#fff" d="M34.284 31.512l-13.62 7.864a4.167 4.167 0 01-4.166 0l-13.62-7.864a4.166 4.166 0 01-2.084-3.608V12.177c0-1.488.794-2.864 2.083-3.608L16.497.705a4.166 4.166 0 014.167 0l13.62 7.864a4.165 4.165 0 012.083 3.608v15.727a4.166 4.166 0 01-2.083 3.608zm-7.47-18.105c-1.022 2.882-2.051 5.771-3.08 8.664h-.326c-1.025-2.9-2.054-5.796-3.079-8.689h-3.198c-1.04 2.925-2.068 5.821-3.096 8.72h-.299a12804.74 12804.74 0 00-3.093-8.68h-3.82c1.858 5.318 3.67 10.503 5.48 15.688h3.153l3.121-8.773h.316c1.043 2.942 2.082 5.887 3.104 8.766h3.16l5.48-15.696h-3.824z"/></g></g><defs><clipPath id="clip0"><path fill="#fff" d="M0 0h121.471v40H0z" transform="translate(.794)"/></clipPath></defs></svg>
